X: 81
T:Bourree (3-time)
M:3/8
L:1/8
R:Bourree
Z:Steve Mansfield
K:D
A | AF/A/F/A/ | BG/B/G/B/ | cA/c/A/c | dcB | AF/A/F/A/ |
BG/B/G/B/ | c/B/A/B/c/A/ | d2 :: A | ABA | G3 | EFG | F3 |
FGF |1 E3 | E/F/G/E/F/G/ | A2 :|2 EFG | ABc | d2 ||

